_includes/icons/ios-swiss-franc.svg

<svg fill="#666" height="50" viewBox="0 0 50 50" width="50" xmlns="http://www.w3.org/2000/svg"><path d="m25 2c-12.690705 0-23 10.309295-23 23s10.309295 23 23 23 23-10.309295 23-23-10.309295-23-23-23zm0 2c11.609824 0 21 9.390176 21 21s-9.390176 21-21 21-21-9.390176-21-21 9.390176-21 21-21zm-7 9v17h-3v2h3v5h2.300781v-5h5.699219v-2h-5.699219v-4.5h11.5v-1.900391h-11.5v-8.699218h12.898438v-1.900391z"/></svg>

<svg xmlns="http://www.w3.org/2000/svg" viewBox="0 0 50 50" width="50" height="50" fill="#666"><path d="M 25 2 C 12.309295 2 2 12.309295 2 25 C 2 37.690705 12.309295 48 25 48 C 37.690705 48 48 37.690705 48 25 C 48 12.309295 37.690705 2 25 2 z M 25 4 C 36.609824 4 46 13.390176 46 25 C 46 36.609824 36.609824 46 25 46 C 13.390176 46 4 36.609824 4 25 C 4 13.390176 13.390176 4 25 4 z M 18 13 L 18 30 L 15 30 L 15 32 L 18 32 L 18 37 L 20.300781 37 L 20.300781 32 L 26 32 L 26 30 L 20.300781 30 L 20.300781 25.5 L 31.800781 25.5 L 31.800781 23.599609 L 20.300781 23.599609 L 20.300781 14.900391 L 33.199219 14.900391 L 33.199219 13 L 18 13 z"/></svg>
